packages/foundations/assets/icons/functional/images/business & payment/cash_32.svg

<svg width="32" height="32" viewBox="0 0 32 32" fill="none" xmlns="http://www.w3.org/2000/svg">
<g clip-path="url(#clip0_184_3)">
<path fill-rule="evenodd" clip-rule="evenodd" d="M21.6042 18.501C23.4342 18.5013 25.2206 19.0594 26.7252 20.101C27.7272 20.794 28.4422 21.327 28.8702 21.701C29.0824 21.8601 29.2227 22.097 29.2602 22.3596C29.2977 22.6221 29.2294 22.8888 29.0702 23.101C28.7652 23.509 28.1512 23.639 27.7752 23.37C27.5252 23.19 26.8682 22.701 25.8042 21.901C24.6751 21.0543 23.3163 20.5687 21.9062 20.508L18.3322 20.501C17.9664 20.501 17.6111 20.6234 17.3228 20.8486C17.0345 21.0739 16.8298 21.389 16.7412 21.744C16.721 21.828 16.7186 21.9152 16.7342 22.0002C16.7498 22.0851 16.783 22.1659 16.8317 22.2372C16.8804 22.3086 16.9436 22.3689 17.017 22.4143C17.0905 22.4597 17.1727 22.4893 17.2582 22.501H21.2702C21.5355 22.501 21.7898 22.6063 21.9774 22.7939C22.1649 22.9814 22.2702 23.2358 22.2702 23.501C22.2702 24.014 21.8572 24.496 21.2702 24.501H17.3302C16.4702 24.489 16.1282 24.316 14.1522 23.501C13.6122 23.278 12.6402 22.891 11.2362 22.341C10.6824 22.1248 10.0826 22.0536 9.49354 22.1341C8.90449 22.2146 8.34575 22.4441 7.87025 22.801C7.71425 22.918 7.63825 23.281 7.96225 23.416C8.17125 23.502 10.6122 24.39 15.2882 26.08C15.9449 26.3185 16.6335 26.4574 17.3312 26.492L22.4782 26.501C22.9521 26.501 23.4253 26.5384 23.8932 26.613L28.4672 27.52C28.7273 27.5721 28.956 27.7254 29.103 27.9461C29.25 28.1668 29.3034 28.4369 29.2512 28.697C29.1512 29.2 28.6572 29.586 28.0742 29.482L23.8512 28.637C23.5125 28.5694 23.1692 28.5269 22.8242 28.51L17.6792 28.501C16.762 28.5009 15.8501 28.3606 14.9752 28.085L7.27725 25.295C6.87869 25.1501 6.52669 24.9003 6.25846 24.5718C5.99022 24.2434 5.81573 23.8486 5.75344 23.4291C5.69115 23.0097 5.74337 22.5812 5.90457 22.189C6.06578 21.7967 6.32999 21.4554 6.66925 21.201C7.38214 20.6664 8.2144 20.3134 9.0942 20.1722C9.97401 20.0311 10.8749 20.1062 11.7192 20.391L14.7422 21.565C14.9762 19.815 16.6192 18.501 18.2692 18.501H21.6042ZM10.7292 2.50098C12.851 2.50098 14.8858 3.34383 16.3861 4.84412C17.8864 6.34441 18.7292 8.37924 18.7292 10.501C18.7292 12.6227 17.8864 14.6575 16.3861 16.1578C14.8858 17.6581 12.851 18.501 10.7292 18.501C8.60752 18.501 6.57268 17.6581 5.07239 16.1578C3.5721 14.6575 2.72925 12.6227 2.72925 10.501C2.72925 8.37924 3.5721 6.34441 5.07239 4.84412C6.57268 3.34383 8.60752 2.50098 10.7292 2.50098ZM10.7292 4.50098C9.13795 4.50098 7.61183 5.13312 6.48661 6.25834C5.36139 7.38355 4.72925 8.90968 4.72925 10.501C4.72925 12.0923 5.36139 13.6184 6.48661 14.7436C7.61183 15.8688 9.13795 16.501 10.7292 16.501C12.3205 16.501 13.8467 15.8688 14.9719 14.7436C16.0971 13.6184 16.7292 12.0923 16.7292 10.501C16.7292 8.90968 16.0971 7.38355 14.9719 6.25834C13.8467 5.13312 12.3205 4.50098 10.7292 4.50098ZM11.2872 6.50098C11.8532 6.50098 12.3642 6.57498 12.8202 6.72298C13.1242 6.82698 13.4292 7.14298 13.3242 7.54998C13.1782 8.03498 12.7002 8.10298 12.3692 8.01698C12.0552 7.93252 11.7315 7.88883 11.4062 7.88698C10.9152 7.88698 10.5612 7.98898 10.3452 8.19498C10.1282 8.40098 9.97725 8.74198 9.89025 9.21798H11.8932V10.128H9.86925V10.842H11.8932V11.752H9.88925C9.95425 12.257 10.0992 12.607 10.3222 12.802C10.5462 12.996 10.9142 13.094 11.4262 13.094C11.7522 13.094 12.6262 12.894 12.7022 12.879C12.9502 12.827 13.2532 12.99 13.3562 13.259C13.5562 13.777 13.1002 14.046 12.9642 14.122C12.8272 14.198 12.4492 14.33 12.1352 14.398C11.8222 14.467 11.5052 14.501 11.1882 14.501C10.5032 14.501 9.94225 14.404 9.50525 14.209C9.08087 14.0251 8.72483 13.7128 8.48725 13.316C8.24625 12.916 8.07725 12.394 7.98425 11.751H7.26925V10.842H7.95125V10.128H7.26925V9.21798H7.98425C8.10725 8.56098 8.29425 8.03598 8.54725 7.64298C8.79553 7.25328 9.15904 6.9506 9.58725 6.77698C10.0272 6.59298 10.5942 6.50098 11.2872 6.50098Z" fill="#1A1C1F"/>
</g>
<defs>
<clipPath id="clip0_184_3">
<rect width="32" height="32" fill="white"/>
</clipPath>
</defs>
</svg>

<svg xmlns="http://www.w3.org/2000/svg" width="32" height="32" fill="none"><g clip-path="url(#a)"><path fill="#1A1C1F" fill-rule="evenodd" d="M21.604 18.501a9 9 0 0 1 5.121 1.6q1.503 1.04 2.145 1.6a1 1 0 0 1 .2 1.4c-.305.408-.919.538-1.295.269q-.375-.27-1.97-1.469a7 7 0 0 0-3.899-1.393l-3.574-.007a1.64 1.64 0 0 0-1.59 1.243.62.62 0 0 0 .516.757h4.012a1 1 0 1 1 0 2h-3.94c-.86-.012-1.202-.185-3.178-1q-.81-.335-2.916-1.16a3.49 3.49 0 0 0-3.366.46c-.156.117-.232.48.092.615q.313.129 7.326 2.664a7 7 0 0 0 2.043.412l5.147.009q.712 0 1.415.112l4.574.907a1 1 0 1 1-.393 1.962l-4.223-.845a7 7 0 0 0-1.027-.127l-5.145-.009c-.917 0-1.829-.14-2.704-.416l-7.698-2.79a2.353 2.353 0 0 1-.608-4.094 5.49 5.49 0 0 1 5.05-.81l3.023 1.174c.234-1.75 1.877-3.064 3.527-3.064zm-10.875-16a8 8 0 1 1 0 16 8 8 0 0 1 0-16m0 2a6 6 0 1 0 0 12 6 6 0 0 0 0-12m.558 2q.849 0 1.533.222c.304.104.61.42.504.827-.146.485-.624.553-.955.467a3.8 3.8 0 0 0-.963-.13q-.736 0-1.06.308-.326.309-.456 1.023h2.003v.91H9.87v.714h2.024v.91H9.89q.098.758.433 1.05.336.291 1.104.292c.326 0 1.2-.2 1.276-.215.248-.052.551.111.654.38.2.518-.256.787-.392.863-.137.076-.515.208-.829.276q-.47.103-.947.103-1.028 0-1.683-.292a2.2 2.2 0 0 1-1.018-.893q-.362-.6-.503-1.565H7.27v-.909h.682v-.714H7.27v-.91h.715q.184-.986.563-1.575c.249-.39.612-.692 1.04-.866q.66-.276 1.7-.276" clip-rule="evenodd"/></g><defs><clipPath id="a"><path fill="#fff" d="M0 0h32v32H0z"/></clipPath></defs></svg>
